X: 1
T: le Vieux Moulin
O: Qu\'ebec
R: reel
Z: 2012 John Chambers <jc:trillian.mit.edu>
M: 2/4
L: 1/16
K: D
(3ABc \
| "D"d2fd adfd | "A"c2ec fcec | "D"d2fd adfd | "A"efec A2AB |
| "D"AFDF Addd | "G"BGDG BdcB | "A7"Acef g{f}ecA | "D"ef"A"ec "D"d2 :|
|: D2 |\
"D"A,4- A,2D2 | "G"B,4- B,2D2 | "A7"C3D E2C2 |1,3 "D"D3E FE :|2,4 "D"D6 :|
